assets/Film projector/Flat/film_projector_flat.svg

<svg width="32" height="32" viewBox="0 0 32 32" fill="none" xmlns="http://www.w3.org/2000/svg">
<path d="M18.447 18.7955C21.6478 19.6531 24.9379 17.7536 25.7955 14.5528C26.6532 11.352 24.7537 8.062 21.5529 7.20435C18.3521 6.3467 15.062 8.24619 14.2044 11.447C13.3467 14.6478 15.2462 17.9378 18.447 18.7955ZM21.0478 10.7621C20.7756 11.0343 20.3109 10.9098 20.2113 10.538L19.6538 8.45734C19.5541 8.08555 19.8943 7.74534 20.2661 7.84496L22.3468 8.40247C22.7185 8.50209 22.8431 8.96682 22.5709 9.23898L21.0478 10.7621ZM18.952 15.2377C19.2241 14.9655 19.6889 15.09 19.7885 15.4618L20.346 17.5425C20.4456 17.9142 20.1054 18.2544 19.7336 18.1548L17.653 17.5973C17.2812 17.4977 17.1567 17.033 17.4288 16.7608L18.952 15.2377ZM17.7622 14.0478L16.239 15.571C15.9669 15.8431 15.5021 15.7186 15.4025 15.3468L14.845 13.2662C14.7454 12.8944 15.0856 12.5542 15.4574 12.6538L17.538 13.2113C17.9098 13.3109 18.0343 13.7757 17.7622 14.0478ZM22.4618 12.7886C22.09 12.689 21.9655 12.2242 22.2377 11.9521L23.7608 10.4289C24.0329 10.1568 24.4977 10.2813 24.5973 10.6531L25.1548 12.7337C25.2544 13.1055 24.9142 13.4457 24.5424 13.3461L22.4618 12.7886ZM22.0263 14.4139L24.1069 14.9714C24.4787 15.0711 24.6032 15.5358 24.331 15.808L22.8079 17.3311C22.5357 17.6032 22.071 17.4787 21.9714 17.1069L21.4139 15.0263C21.3143 14.6545 21.6545 14.3143 22.0263 14.4139ZM18.5858 10.9735C18.6855 11.3453 18.3453 11.6855 17.9735 11.5859L15.8928 11.0284C15.5211 10.9287 15.3965 10.464 15.6687 10.1918L17.1918 8.6687C17.464 8.39654 17.9287 8.52106 18.0283 8.89285L18.5858 10.9735ZM21.0537 13.2823C20.8978 13.8642 20.2996 14.2096 19.7176 14.0536C19.1357 13.8977 18.7903 13.2995 18.9462 12.7176C19.1022 12.1356 19.7004 11.7902 20.2823 11.9462C20.8643 12.1021 21.2097 12.7003 21.0537 13.2823ZM10.2499 19.263C12.8806 17.7443 13.7819 14.3805 12.2631 11.7499C10.7443 9.11929 7.38055 8.21798 4.74994 9.73676C2.11933 11.2555 1.21802 14.6193 2.7368 17.2499C4.25559 19.8805 7.61933 20.7818 10.2499 19.263ZM6.74995 12.3348C6.74995 12.7197 6.33328 12.9603 5.99995 12.7678L4.49995 11.9018C4.16661 11.7094 4.16661 11.2282 4.49995 11.0358L5.99995 10.1698C6.33328 9.97732 6.74995 10.2179 6.74995 10.6028V12.3348ZM8.24995 16.665C8.24995 16.2801 8.66661 16.0395 8.99995 16.2319L10.4999 17.098C10.8333 17.2904 10.8333 17.7715 10.4999 17.964L8.99995 18.83C8.66661 19.0225 8.24995 18.7819 8.24995 18.397V16.665ZM6.74997 16.6649V18.397C6.74997 18.7819 6.3333 19.0225 5.99997 18.83L4.49997 17.964C4.16663 17.7715 4.16664 17.2904 4.49997 17.098L5.99997 16.2319C6.3333 16.0395 6.74997 16.28 6.74997 16.6649ZM8.99993 12.7679C8.66659 12.9603 8.24993 12.7198 8.24993 12.3349L8.24993 10.6028C8.24993 10.2179 8.66659 9.97734 8.99993 10.1698L10.4999 11.0358C10.8333 11.2283 10.8333 11.7094 10.4999 11.9018L8.99993 12.7679ZM9.74993 14.0669L11.2499 13.2009C11.5833 13.0084 11.9999 13.249 11.9999 13.6339V15.3659C11.9999 15.7508 11.5833 15.9914 11.2499 15.799L9.74993 14.9329C9.41659 14.7405 9.41659 14.2594 9.74993 14.0669ZM5.24992 14.0669C5.58325 14.2593 5.58325 14.7405 5.24992 14.9329L3.74992 15.7989C3.41658 15.9914 2.99992 15.7508 2.99992 15.3659V13.6339C2.99992 13.249 3.41658 13.0084 3.74992 13.2009L5.24992 14.0669ZM8.36597 13.9999C8.64211 14.4782 8.47823 15.0898 7.99994 15.3659C7.52165 15.6421 6.91006 15.4782 6.63392 14.9999C6.35777 14.5216 6.52165 13.91 6.99994 13.6339C7.47823 13.3577 8.08982 13.5216 8.36597 13.9999Z" fill="#636363"/>
<path d="M25 13C25 10.2386 22.7614 8 20 8C17.2386 8 15 10.2386 15 13C15 15.7614 17.2386 18 20 18C22.7614 18 25 15.7614 25 13ZM26 13C26 16.3137 23.3137 19 20 19C16.6863 19 14 16.3137 14 13C14 9.68629 16.6863 7 20 7C23.3137 7 26 9.68629 26 13ZM12 14.5C12 12.0147 9.98528 10 7.5 10C5.01472 10 3 12.0147 3 14.5C3 16.9853 5.01472 19 7.5 19C9.98528 19 12 16.9853 12 14.5ZM13 14.5C13 17.5376 10.5376 20 7.5 20C4.46243 20 2 17.5376 2 14.5C2 11.4624 4.46243 9 7.5 9C10.5376 9 13 11.4624 13 14.5Z" fill="#BEBEBE"/>
<path d="M8 17C6.89543 17 6 17.8954 6 19V28C6 29.1046 6.89543 30 8 30H21C22.1046 30 23 29.1046 23 28V26H26V21H23V19C23 17.8954 22.1046 17 21 17H8Z" fill="#9B9B9B"/>
<path d="M21 26C21 26.5523 20.5523 27 20 27C19.4477 27 19 26.5523 19 26C19 25.4477 19.4477 25 20 25C20.5523 25 21 25.4477 21 26Z" fill="#CA0B4A"/>
<path d="M21 21C21 21.5523 20.5523 22 20 22C19.4477 22 19 21.5523 19 21C19 20.4477 19.4477 20 20 20C20.5523 20 21 20.4477 21 21Z" fill="#F4F4F4"/>
<path d="M8.5 22C8.22386 22 8 22.2239 8 22.5C8 22.7761 8.22386 23 8.5 23H13.5C13.7761 23 14 22.7761 14 22.5C14 22.2239 13.7761 22 13.5 22H8.5ZM8 24.5C8 24.2239 8.22386 24 8.5 24H13.5C13.7761 24 14 24.2239 14 24.5C14 24.7761 13.7761 25 13.5 25H8.5C8.22386 25 8 24.7761 8 24.5ZM8 26.5C8 26.2239 8.22386 26 8.5 26H13.5C13.7761 26 14 26.2239 14 26.5C14 26.7761 13.7761 27 13.5 27H8.5C8.22386 27 8 26.7761 8 26.5Z" fill="#321B41"/>
<path d="M25 20.118C25 19.7392 25.214 19.393 25.5528 19.2236L28.5528 17.7236C29.2177 17.3911 30 17.8746 30 18.618V28.5229C30 29.2304 29.2855 29.7141 28.6286 29.4514L25.6286 28.2514C25.249 28.0995 25 27.7318 25 27.3229V20.118Z" fill="#636363"/>
</svg>

<svg xmlns="http://www.w3.org/2000/svg" width="32" height="32" fill="none"><path fill="#636363" d="M18.447 18.796a6 6 0 1 0 3.106-11.592 6 6 0 0 0-3.106 11.591Zm2.6-8.034a.5.5 0 0 1-.836-.224l-.557-2.08a.5.5 0 0 1 .612-.613l2.08.557a.5.5 0 0 1 .225.837l-1.523 1.523Zm-2.095 4.476a.5.5 0 0 1 .836.224l.558 2.08a.5.5 0 0 1-.612.613l-2.081-.558a.5.5 0 0 1-.224-.836l1.523-1.523Zm-1.19-1.19L16.24 15.57a.5.5 0 0 1-.837-.224l-.557-2.08a.5.5 0 0 1 .612-.613l2.081.557a.5.5 0 0 1 .224.837Zm4.7-1.26a.5.5 0 0 1-.224-.836l1.523-1.523a.5.5 0 0 1 .836.224l.558 2.08a.5.5 0 0 1-.613.613l-2.08-.557Zm-.436 1.626 2.08.557a.5.5 0 0 1 .225.837l-1.523 1.523a.5.5 0 0 1-.837-.224l-.557-2.08a.5.5 0 0 1 .612-.613Zm-3.44-3.44a.5.5 0 0 1-.612.612l-2.081-.558a.5.5 0 0 1-.224-.836l1.523-1.523a.5.5 0 0 1 .836.224l.558 2.08Zm2.468 2.308a1.09 1.09 0 1 1-2.108-.564 1.09 1.09 0 0 1 2.108.564ZM10.25 19.263a5.5 5.5 0 1 0-5.5-9.526 5.5 5.5 0 0 0 5.5 9.526Zm-3.5-6.928a.5.5 0 0 1-.75.433l-1.5-.866a.5.5 0 0 1 0-.866L6 10.17a.5.5 0 0 1 .75.433v1.732Zm1.5 4.33a.5.5 0 0 1 .75-.433l1.5.866a.5.5 0 0 1 0 .866L9 18.83a.5.5 0 0 1-.75-.433v-1.732Zm-1.5 0v1.732a.5.5 0 0 1-.75.433l-1.5-.866a.5.5 0 0 1 0-.866l1.5-.866a.5.5 0 0 1 .75.433ZM9 12.768a.5.5 0 0 1-.75-.433v-1.732A.5.5 0 0 1 9 10.17l1.5.866a.5.5 0 0 1 0 .866l-1.5.866Zm.75 1.299 1.5-.866a.5.5 0 0 1 .75.433v1.732a.5.5 0 0 1-.75.433l-1.5-.866a.5.5 0 0 1 0-.866Zm-4.5 0a.5.5 0 0 1 0 .866l-1.5.866a.5.5 0 0 1-.75-.433v-1.732a.5.5 0 0 1 .75-.433l1.5.866ZM8.366 14a1 1 0 1 1-1.732 1 1 1 0 0 1 1.732-1Z"/><path fill="#BEBEBE" d="M25 13a5 5 0 1 0-10 0 5 5 0 0 0 10 0Zm1 0a6 6 0 1 1-12 0 6 6 0 0 1 12 0Zm-14 1.5a4.5 4.5 0 1 0-9 0 4.5 4.5 0 0 0 9 0Zm1 0a5.5 5.5 0 1 1-11 0 5.5 5.5 0 0 1 11 0Z"/><path fill="#9B9B9B" d="M8 17a2 2 0 0 0-2 2v9a2 2 0 0 0 2 2h13a2 2 0 0 0 2-2v-2h3v-5h-3v-2a2 2 0 0 0-2-2H8Z"/><path fill="#CA0B4A" d="M21 26a1 1 0 1 1-2 0 1 1 0 0 1 2 0Z"/><path fill="#F4F4F4" d="M21 21a1 1 0 1 1-2 0 1 1 0 0 1 2 0Z"/><path fill="#321B41" d="M8.5 22a.5.5 0 0 0 0 1h5a.5.5 0 0 0 0-1h-5ZM8 24.5a.5.5 0 0 1 .5-.5h5a.5.5 0 0 1 0 1h-5a.5.5 0 0 1-.5-.5Zm0 2a.5.5 0 0 1 .5-.5h5a.5.5 0 0 1 0 1h-5a.5.5 0 0 1-.5-.5Z"/><path fill="#636363" d="M25 20.118a1 1 0 0 1 .553-.894l3-1.5a1 1 0 0 1 1.447.894v9.905a1 1 0 0 1-1.371.928l-3-1.2a1 1 0 0 1-.629-.928v-7.205Z"/></svg>
